Sources/FrostedUI/Resources/Icons.xcassets/lightsOff20.imageset/lights-off-20.svg

<svg width="20" height="20" viewBox="0 0 20 20" fill="none" xmlns="http://www.w3.org/2000/svg" data-fui-icon="true">
  <path
    d="M12 18.5C12.4142 18.5 12.75 18.8358 12.75 19.25C12.75 19.6642 12.4142 20 12 20H8C7.58579 20 7.25 19.6642 7.25 19.25C7.25 18.8358 7.58579 18.5 8 18.5H12ZM10 4.25C13.4621 4.25 15.75 7.13536 15.75 10C15.75 11.1591 15.3037 12.1912 14.8018 12.9902C14.2976 13.7928 13.706 14.4104 13.3408 14.7559C13.2728 14.8202 13.2501 14.8894 13.25 14.9355C13.25 16.3516 12.1016 17.5 10.6855 17.5H9.31445C7.89836 17.5 6.75 16.3516 6.75 14.9355C6.74987 14.8894 6.72718 14.8202 6.65918 14.7559C6.29403 14.4104 5.70244 13.7928 5.19824 12.9902C4.69631 12.1912 4.25 11.1591 4.25 10C4.25 7.13536 6.53789 4.25 10 4.25ZM10 5.75C7.46211 5.75 5.75 7.86464 5.75 10C5.75 10.7762 6.05243 11.5297 6.46875 12.1924C6.88264 12.8512 7.37877 13.3712 7.69043 13.666C8.0225 13.9801 8.24988 14.4308 8.25 14.9355C8.25 15.5232 8.72679 16 9.31445 16H10.6855C11.2732 16 11.75 15.5232 11.75 14.9355C11.7501 14.4308 11.9775 13.9801 12.3096 13.666C12.6212 13.3712 13.1174 12.8512 13.5312 12.1924C13.9476 11.5297 14.25 10.7762 14.25 10C14.25 7.86464 12.5379 5.75 10 5.75Z"
    fill="currentColor"
  />
</svg>

<svg xmlns="http://www.w3.org/2000/svg" width="20" height="20" fill="none" data-fui-icon="true" viewBox="0 0 20 20"><path fill="currentColor" d="M12 18.5a.75.75 0 0 1 0 1.5H8a.75.75 0 0 1 0-1.5zM10 4.25c3.462 0 5.75 2.885 5.75 5.75 0 1.16-.446 2.191-.948 2.99a9.3 9.3 0 0 1-1.461 1.766.26.26 0 0 0-.091.18 2.565 2.565 0 0 1-2.565 2.564h-1.37a2.565 2.565 0 0 1-2.565-2.565.26.26 0 0 0-.09-.18 9.3 9.3 0 0 1-1.462-1.765c-.502-.799-.948-1.83-.948-2.99 0-2.865 2.288-5.75 5.75-5.75m0 1.5c-2.538 0-4.25 2.115-4.25 4.25 0 .776.302 1.53.719 2.192.414.66.91 1.18 1.221 1.474.333.314.56.765.56 1.27 0 .587.477 1.064 1.064 1.064h1.371c.588 0 1.065-.477 1.065-1.065 0-.504.227-.955.56-1.269a7.8 7.8 0 0 0 1.221-1.474c.417-.662.719-1.416.719-2.192 0-2.135-1.712-4.25-4.25-4.25"/></svg>
